public/img/illustrations/like-big-finger-illustation.svg

<svg width="159" height="160" viewBox="0 0 159 160" fill="none" xmlns="http://www.w3.org/2000/svg">
<g clip-path="url(#clip0_5507_1804)">
<path d="M119.745 119.63L119.886 118.882C120.825 113.925 117.534 109.055 112.436 107.501C117.758 107.876 122.607 104.513 123.546 99.556L123.687 98.8086C124.607 93.9522 121.462 89.1814 116.541 87.53C121.735 87.7479 126.41 84.4291 127.329 79.5719L127.472 78.8239C128.486 73.4655 124.562 68.2005 118.752 67.1242L101.938 64.0098L101.959 63.888L96.8632 63.0727L85.1161 60.8976C84.8279 56.4449 93.018 48.381 94.2878 44.1751C96.1596 37.9332 96.3189 31.3048 94.7491 24.9858C93.7415 20.9075 88.9752 16.1441 84.3694 16.6571C81.8441 16.9381 79.9308 18.874 79.0726 20.9982C78.2144 23.1224 78.1932 25.4443 78.0116 27.7107C77.4991 34.1559 73.7004 38.1234 68.3884 42.4075C63.732 46.1618 60.074 49.5042 58.1346 55.1774C56.627 59.5834 51.9211 62.3209 46.8632 61.7293L41.5613 61.1081C38.4469 78.9028 35.0977 96.5175 32.4509 114.204C37.6281 115.254 42.8365 116.119 48.0763 116.799L48.0261 117.117L75.6575 121.551L107.342 127.423C113.146 128.492 118.731 124.988 119.745 119.63Z" fill="#FCFCF0"/>
<path d="M119.994 87.314L99.1087 84.1379C98.1871 83.9971 97.8009 85.4223 98.7392 85.5598L119.628 88.7375C120.552 88.8778 120.937 87.4539 119.999 87.3164L119.994 87.314Z" fill="#00153B"/>
<path d="M116.898 108.011L96.6064 104.924C95.6827 104.784 95.2973 106.208 96.2356 106.345L116.527 109.432C117.451 109.572 117.836 108.149 116.898 108.011Z" fill="#00153B"/>
<path d="M94.8722 23.1602L80.5496 20.9814C78.7028 20.6994 77.9361 23.5401 79.8071 23.825L94.1319 26.0032C95.9773 26.2844 96.7432 23.4451 94.8722 23.1602Z" fill="#00153B"/>
<path d="M122.418 119.183L122.543 118.464C123.366 113.688 119.872 109.005 114.624 107.522C120.07 107.868 124.931 104.618 125.757 99.8421L125.881 99.124C126.688 94.4435 123.348 89.8581 118.276 88.2777C123.586 88.4773 128.273 85.267 129.081 80.5873L129.205 79.867C130.096 74.7047 125.946 69.6428 119.982 68.6221L78.3906 61.4956C72.4265 60.4735 66.8177 63.8614 65.9256 69.025L65.8021 69.7454C64.9933 74.425 68.3338 79.0105 73.4079 80.5903C68.0955 80.3913 63.4098 83.6002 62.6024 88.2806L62.4775 89.0002C61.6534 93.7767 65.1462 98.4575 70.3947 99.9433C64.9499 99.5955 60.0872 102.845 59.2632 107.622L59.1383 108.341C58.2475 113.506 62.3982 118.566 68.3617 119.586L109.953 126.713C115.917 127.735 121.526 124.347 122.418 119.183Z" fill="#FCFCF0"/>
<path d="M120.359 67.2028L95.0364 62.8652L80.938 60.4486C76.3575 59.6581 71.7505 59.5771 67.9556 62.8072C65.1454 65.2004 63.7501 69.1299 64.3618 72.772C65.134 77.3671 68.8173 80.5577 73.0404 82.0152L73.412 79.1281C67.6064 79.0781 62.0969 82.4417 61.1008 88.452C60.0783 94.6268 64.3722 99.5865 70.035 101.371L70.4058 98.4851C62.9879 98.2311 55.9557 104.216 57.8535 112.082C59.165 117.519 64.1218 120.353 69.2628 121.233L99.3865 126.389L109.605 128.142C111.453 128.467 112.214 125.617 110.347 125.298L89.0708 121.651L74.7214 119.192C72.2995 118.778 69.7254 118.551 67.3554 117.848C63.2815 116.642 59.9732 112.956 60.6095 108.527C61.3128 103.632 65.8078 101.257 70.4202 101.415C72.1358 101.479 72.3219 99.0092 70.791 98.5295C66.5344 97.1844 63.1979 93.5246 64.0147 88.844C64.8113 84.2592 69.102 82.0292 73.4402 82.0662C75.176 82.0821 75.3209 79.6999 73.8041 79.1765C69.7632 77.7816 66.606 74.2438 67.3088 69.7606C67.8794 66.1281 70.7535 63.6531 74.2933 62.977C77.126 62.4359 80.2138 63.2991 83.0033 63.775L111.448 68.6493L119.639 70.0521C121.487 70.3773 122.247 67.529 120.38 67.2077L120.359 67.2028Z" fill="#00153B"/>
<path d="M121.676 86.1933L73.5022 77.9397C71.6545 77.6145 70.8945 80.4629 72.7606 80.782L120.935 89.0377C122.782 89.3629 123.542 86.5146 121.676 86.1933Z" fill="#00153B"/>
<path d="M117.951 107.77L69.8468 99.527C67.999 99.2018 67.2391 102.05 69.1065 102.37L117.209 110.612C119.057 110.937 119.817 108.089 117.951 107.77Z" fill="#00153B"/>
<path d="M74.6324 61.5655L64.8835 118.027C64.5556 119.877 67.4021 120.632 67.724 118.764C70.9736 99.9433 74.2225 81.1231 77.4706 62.3031C77.7986 60.4531 74.9543 59.6971 74.6316 61.5669L74.6324 61.5655Z" fill="#00153B"/>
<path d="M41.568 61.0985L25.7598 58.5457L17.1051 111.708L32.9132 114.261L41.568 61.0985Z" fill="#2367ED"/>
</g>
<defs>
<clipPath id="clip0_5507_1804">
<rect width="114.538" height="117.332" fill="white" transform="translate(59.2363 0.559326) rotate(30)"/>
</clipPath>
</defs>
</svg>

<svg width="159" height="160" fill="none" xmlns="http://www.w3.org/2000/svg"><g clip-path="url(#clip0_5507_1804)"><path d="M119.745 119.63l.141-.748c.939-4.957-2.352-9.827-7.45-11.381 5.322.375 10.171-2.988 11.11-7.945l.141-.747c.92-4.857-2.225-9.628-7.146-11.279 5.194.218 9.869-3.1 10.788-7.958l.143-.748c1.014-5.358-2.91-10.623-8.72-11.7l-16.814-3.114.021-.122-5.096-.815-11.747-2.175c-.288-4.453 7.902-12.517 9.172-16.723a36.322 36.322 0 00.461-19.19c-1.007-4.078-5.774-8.84-10.38-8.328-2.525.281-4.438 2.217-5.296 4.341-.859 2.124-.88 4.446-1.061 6.713-.513 6.445-4.312 10.412-9.624 14.697-4.656 3.754-8.314 7.096-10.253 12.77-1.508 4.405-6.214 7.143-11.272 6.551l-5.302-.62c-3.114 17.794-6.463 35.408-9.11 53.095a222.929 222.929 0 0015.625 2.595l-.05.318 27.631 4.434 31.685 5.872c5.804 1.069 11.389-2.435 12.403-7.793z" fill="#FCFCF0"/><path d="M119.994 87.314l-20.885-3.176c-.922-.14-1.308 1.284-.37 1.422l20.889 3.177c.924.14 1.309-1.283.371-1.42l-.005-.003zm-3.096 20.697l-20.292-3.087c-.923-.14-1.309 1.284-.37 1.421l20.291 3.087c.924.14 1.309-1.283.371-1.421zM94.872 23.16L80.55 20.981c-1.847-.282-2.614 2.56-.743 2.844l14.325 2.178c1.845.281 2.611-2.558.74-2.843z" fill="#00153B"/><path d="M122.418 119.183l.125-.719c.823-4.776-2.671-9.459-7.919-10.942 5.446.346 10.307-2.904 11.133-7.68l.124-.718c.807-4.68-2.533-9.266-7.605-10.846 5.31.2 9.997-3.011 10.805-7.69l.124-.721c.891-5.162-3.259-10.224-9.223-11.245l-41.591-7.126c-5.965-1.023-11.573 2.365-12.465 7.529l-.124.72c-.809 4.68 2.532 9.265 7.606 10.845-5.313-.199-9.998 3.01-10.806 7.69l-.124.72c-.825 4.777 2.668 9.457 7.917 10.943-5.445-.347-10.308 2.902-11.132 7.679l-.125.719c-.89 5.165 3.26 10.225 9.224 11.245l41.591 7.127c5.964 1.022 11.573-2.366 12.465-7.53z" fill="#FCFCF0"/><path d="M120.359 67.203l-25.323-4.338-14.098-2.416c-4.58-.79-9.188-.872-12.982 2.358-2.81 2.393-4.206 6.323-3.594 9.965.772 4.595 4.455 7.786 8.678 9.243l.372-2.887c-5.806-.05-11.315 3.314-12.311 9.324-1.023 6.175 3.271 11.135 8.934 12.919l.37-2.886c-7.417-.254-14.45 5.731-12.552 13.597 1.312 5.437 6.269 8.271 11.41 9.151l30.123 5.156 10.219 1.753c1.848.325 2.609-2.525.742-2.844l-21.276-3.647-14.35-2.459c-2.422-.414-4.996-.641-7.366-1.344-4.074-1.206-7.382-4.892-6.746-9.321.704-4.895 5.199-7.27 9.811-7.112 1.716.064 1.902-2.406.371-2.886-4.257-1.345-7.593-5.004-6.776-9.685.796-4.585 5.087-6.815 9.425-6.778 1.736.016 1.88-2.366.364-2.89-4.04-1.394-7.198-4.932-6.495-9.415.57-3.633 3.445-6.108 6.984-6.784 2.833-.541 5.92.322 8.71.798l28.445 4.874 8.191 1.403c1.848.325 2.608-2.523.741-2.844l-.021-.005z" fill="#00153B"/><path d="M121.676 86.193L73.502 77.94c-1.847-.325-2.608 2.523-.741 2.842l48.174 8.256c1.847.325 2.607-2.523.741-2.845zm-3.725 21.577l-48.104-8.243c-1.848-.325-2.608 2.523-.74 2.843l48.102 8.242c1.848.325 2.608-2.523.742-2.842z" fill="#00153B"/><path d="M74.632 61.566l-9.749 56.461c-.327 1.85 2.52 2.605 2.841.737l9.747-56.46c.328-1.85-2.517-2.607-2.84-.737l.001-.002z" fill="#00153B"/><path d="M41.568 61.099L25.76 58.546l-8.655 53.162 15.808 2.553 8.655-53.162z" fill="#2367ED"/></g><defs><clipPath id="clip0_5507_1804"><path fill="#fff" transform="rotate(30 28.574 110.816)" d="M0 0h114.538v117.332H0z"/></clipPath></defs></svg>
